%
O0000(FLANGE_BOLT_M12X125)
(DATE=DD-MM-YY - 01-04-25 TIME=HH:MM - 14:54)
(MCAM FILE - C:\USERS\DAODU\DOCUMENTS\MASTERC-M\MILL_CONTOUR\FLANGE_BOLT_M12X125.MCAM)
(NC FILE - C:\USERS\DAODU\DOCUMENTS\MY MASTERCAM 2025\MASTERCAM\MILL\NC\FLANGE_BOLT_M12X125.NC)
(MATERIAL - ALUMINUM MM - 2024)
( T1 | 18 FLAT ENDMILL | H1 )
N100 G21
N110 G0 G17 G40 G49 G80 G90
N120 T1 M6
N130 G0 G90 G54 X-33.66 Y39.312 A0. S2500 M3
N140 G43 H1 Z25.
N150 G1 X-18.025 Y30.394 F66.7
N160 G0 Z10.
N170 G1 Z0. F10.
N180 G2 X-8.943 Y14.759 I-8.918 J-15.635 F66.7
N190 X-11.307 Y5.841 I-18. J0.
N200 G1 X-13.494 Y2.007 Z-.077
N210 X-14.094 Y.775 Z-.101
N220 X-14.528 Y-.524 Z-.125
N230 X-14.789 Y-1.869 Z-.149
N240 X-14.873 Y-3.237 Z-.173
N250 X-14.779 Y-4.603 Z-.197
N260 X-14.507 Y-5.946 Z-.221
N270 X-14.062 Y-7.242 Z-.245
N280 X-13.453 Y-8.469 Z-.268
N290 X-12.689 Y-9.607 Z-.292
N300 X-11.783 Y-10.635 Z-.316
N310 X-10.752 Y-11.536 Z-.34
N320 X-9.612 Y-12.296 Z-.364
N330 X-8.382 Y-12.9 Z-.388
N340 X-7.084 Y-13.339 Z-.412
N350 X-5.741 Y-13.606 Z-.436
N360 X-4.373 Y-13.695 Z-.46
N370 X4.373 Z-.613
N380 X5.741 Y-13.606 Z-.637
N390 X7.084 Y-13.339 Z-.66
N400 X8.382 Y-12.9 Z-.684
N410 X9.612 Y-12.296 Z-.708
N420 X10.752 Y-11.536 Z-.732
N430 X11.783 Y-10.635 Z-.756
N440 X12.689 Y-9.607 Z-.78
N450 X13.453 Y-8.469 Z-.804
N460 X14.062 Y-7.242 Z-.828
N470 X14.507 Y-5.946 Z-.852
N480 X14.779 Y-4.603 Z-.876
N490 X14.873 Y-3.237 Z-.9
N500 X14.789 Y-1.869 Z-.924
N510 X14.528 Y-.524 Z-.948
N520 X14.094 Y.775 Z-.972
N530 X13.494 Y2.007 Z-.996
N540 X9.121 Y9.675 Z-1.15
N550 X8.359 Y10.826 Z-1.174
N560 X7.454 Y11.868 Z-1.198
N570 X6.419 Y12.782 Z-1.222
N580 X5.274 Y13.552 Z-1.246
N590 X4.037 Y14.165 Z-1.27
N600 X2.731 Y14.611 Z-1.294
N610 X1.377 Y14.882 Z-1.318
N620 X0. Y14.972 Z-1.342
N630 X-1.377 Y14.882 Z-1.367
N640 X-2.731 Y14.611 Z-1.391
N650 X-4.037 Y14.165 Z-1.415
N660 X-5.274 Y13.552 Z-1.439
N670 X-6.419 Y12.782 Z-1.463
N680 X-7.454 Y11.868 Z-1.487
N690 X-8.359 Y10.826 Z-1.511
N700 X-9.121 Y9.675 Z-1.535
N710 X-11.307 Y5.841 Z-1.612
N720 X-13.494 Y2.007 Z-1.689
N730 X-14.094 Y.775 Z-1.713
N740 X-14.528 Y-.524 Z-1.737
N750 X-14.789 Y-1.869 Z-1.761
N760 X-14.873 Y-3.237 Z-1.785
N770 X-14.779 Y-4.603 Z-1.809
N780 X-14.507 Y-5.946 Z-1.833
N790 X-14.062 Y-7.242 Z-1.857
N800 X-13.453 Y-8.469 Z-1.881
N810 X-12.689 Y-9.607 Z-1.905
N820 X-11.783 Y-10.635 Z-1.929
N830 X-10.752 Y-11.536 Z-1.953
N840 X-9.612 Y-12.296 Z-1.977
N850 X-8.382 Y-12.9 Z-2.001
N860 X-7.084 Y-13.339 Z-2.024
N870 X-5.741 Y-13.606 Z-2.048
N880 X-4.373 Y-13.695 Z-2.072
N890 X4.373 Z-2.225
N900 X5.741 Y-13.606 Z-2.249
N910 X7.084 Y-13.339 Z-2.273
N920 X8.382 Y-12.9 Z-2.297
N930 X9.612 Y-12.296 Z-2.321
N940 X10.752 Y-11.536 Z-2.345
N950 X11.783 Y-10.635 Z-2.369
N960 X12.689 Y-9.607 Z-2.393
N970 X13.453 Y-8.469 Z-2.416
N980 X14.062 Y-7.242 Z-2.44
N990 X14.507 Y-5.946 Z-2.464
N1000 X14.779 Y-4.603 Z-2.488
N1010 X14.873 Y-3.237 Z-2.512
N1020 X14.789 Y-1.869 Z-2.536
N1030 X14.528 Y-.524 Z-2.56
N1040 X14.094 Y.775 Z-2.584
N1050 X13.494 Y2.007 Z-2.608
N1060 X9.121 Y9.675 Z-2.762
N1070 X8.359 Y10.826 Z-2.786
N1080 X7.454 Y11.868 Z-2.81
N1090 X6.419 Y12.782 Z-2.834
N1100 X5.274 Y13.552 Z-2.858
N1110 X4.037 Y14.165 Z-2.883
N1120 X2.731 Y14.611 Z-2.907
N1130 X1.377 Y14.882 Z-2.931
N1140 X0. Y14.972 Z-2.955
N1150 X-1.377 Y14.882 Z-2.979
N1160 X-2.731 Y14.611 Z-3.003
N1170 X-4.037 Y14.165 Z-3.027
N1180 X-5.274 Y13.552 Z-3.051
N1190 X-6.419 Y12.782 Z-3.075
N1200 X-7.454 Y11.868 Z-3.1
N1210 X-8.359 Y10.826 Z-3.124
N1220 X-9.121 Y9.675 Z-3.148
N1230 X-11.307 Y5.841 Z-3.225
N1240 X-13.494 Y2.007 Z-3.302
N1250 X-14.094 Y.775 Z-3.326
N1260 X-14.528 Y-.524 Z-3.35
N1270 X-14.789 Y-1.869 Z-3.374
N1280 X-14.873 Y-3.237 Z-3.398
N1290 X-14.779 Y-4.603 Z-3.422
N1300 X-14.507 Y-5.946 Z-3.445
N1310 X-14.062 Y-7.242 Z-3.469
N1320 X-13.453 Y-8.469 Z-3.493
N1330 X-12.689 Y-9.607 Z-3.517
N1340 X-11.783 Y-10.635 Z-3.541
N1350 X-10.752 Y-11.536 Z-3.565
N1360 X-9.612 Y-12.296 Z-3.589
N1370 X-8.382 Y-12.9 Z-3.613
N1380 X-7.084 Y-13.339 Z-3.637
N1390 X-5.741 Y-13.606 Z-3.661
N1400 X-4.373 Y-13.695 Z-3.685
N1410 X4.373 Z-3.837
N1420 X5.741 Y-13.606 Z-3.861
N1430 X7.084 Y-13.339 Z-3.885
N1440 X8.382 Y-12.9 Z-3.909
N1450 X9.612 Y-12.296 Z-3.933
N1460 X10.752 Y-11.536 Z-3.957
N1470 X11.783 Y-10.635 Z-3.981
N1480 X12.689 Y-9.607 Z-4.005
N1490 X13.453 Y-8.469 Z-4.029
N1500 X14.062 Y-7.242 Z-4.053
N1510 X14.507 Y-5.946 Z-4.077
N1520 X14.779 Y-4.603 Z-4.101
N1530 X14.873 Y-3.237 Z-4.125
N1540 X14.789 Y-1.869 Z-4.149
N1550 X14.528 Y-.524 Z-4.172
N1560 X14.094 Y.775 Z-4.196
N1570 X13.494 Y2.007 Z-4.22
N1580 X9.121 Y9.675 Z-4.374
N1590 X8.359 Y10.826 Z-4.399
N1600 X7.454 Y11.868 Z-4.423
N1610 X6.419 Y12.782 Z-4.447
N1620 X5.274 Y13.552 Z-4.471
N1630 X4.037 Y14.165 Z-4.495
N1640 X2.731 Y14.611 Z-4.519
N1650 X1.377 Y14.882 Z-4.543
N1660 X0. Y14.972 Z-4.567
N1670 X-1.377 Y14.882 Z-4.591
N1680 X-2.731 Y14.611 Z-4.616
N1690 X-4.037 Y14.165 Z-4.64
N1700 X-5.274 Y13.552 Z-4.664
N1710 X-6.419 Y12.782 Z-4.688
N1720 X-7.454 Y11.868 Z-4.712
N1730 X-8.359 Y10.826 Z-4.736
N1740 X-9.121 Y9.675 Z-4.76
N1750 X-11.307 Y5.841 Z-4.837
N1760 X-13.494 Y2.007 Z-4.914
N1770 X-14.094 Y.775 Z-4.938
N1780 X-14.528 Y-.524 Z-4.962
N1790 X-14.789 Y-1.869 Z-4.986
N1800 X-14.873 Y-3.237 Z-5.01
N1810 X-14.779 Y-4.603 Z-5.034
N1820 X-14.507 Y-5.946 Z-5.058
N1830 X-14.062 Y-7.242 Z-5.082
N1840 X-13.453 Y-8.469 Z-5.106
N1850 X-12.689 Y-9.607 Z-5.13
N1860 X-11.783 Y-10.635 Z-5.154
N1870 X-10.752 Y-11.536 Z-5.178
N1880 X-9.612 Y-12.296 Z-5.201
N1890 X-8.382 Y-12.9 Z-5.225
N1900 X-7.084 Y-13.339 Z-5.249
N1910 X-5.741 Y-13.606 Z-5.273
N1920 X-4.373 Y-13.695 Z-5.297
N1930 X4.373 Z-5.45
N1940 X5.741 Y-13.606 Z-5.474
N1950 X7.084 Y-13.339 Z-5.498
N1960 X8.382 Y-12.9 Z-5.522
N1970 X9.612 Y-12.296 Z-5.546
N1980 X10.752 Y-11.536 Z-5.57
N1990 X11.783 Y-10.635 Z-5.593
N2000 X12.689 Y-9.607 Z-5.617
N2010 X13.453 Y-8.469 Z-5.641
N2020 X14.062 Y-7.242 Z-5.665
N2030 X14.507 Y-5.946 Z-5.689
N2040 X14.779 Y-4.603 Z-5.713
N2050 X14.873 Y-3.237 Z-5.737
N2060 X14.789 Y-1.869 Z-5.761
N2070 X14.528 Y-.524 Z-5.785
N2080 X14.094 Y.775 Z-5.809
N2090 X13.494 Y2.007 Z-5.833
N2100 X9.121 Y9.675 Z-5.987
N2110 X8.359 Y10.826 Z-6.011
N2120 X7.454 Y11.868 Z-6.035
N2130 X6.419 Y12.782 Z-6.059
N2140 X5.274 Y13.552 Z-6.083
N2150 X4.037 Y14.165 Z-6.107
N2160 X2.731 Y14.611 Z-6.132
N2170 X1.377 Y14.882 Z-6.156
N2180 X0. Y14.972 Z-6.18
N2190 X-1.377 Y14.882 Z-6.204
N2200 X-2.731 Y14.611 Z-6.228
N2210 X-4.037 Y14.165 Z-6.252
N2220 X-5.274 Y13.552 Z-6.276
N2230 X-6.419 Y12.782 Z-6.3
N2240 X-7.454 Y11.868 Z-6.324
N2250 X-8.359 Y10.826 Z-6.349
N2260 X-9.121 Y9.675 Z-6.373
N2270 X-11.307 Y5.841 Z-6.45
N2280 X-13.494 Y2.007 Z-6.527
N2290 X-14.094 Y.775 Z-6.551
N2300 X-14.528 Y-.524 Z-6.575
N2310 X-14.789 Y-1.869 Z-6.598
N2320 X-14.873 Y-3.237 Z-6.622
N2330 X-14.779 Y-4.603 Z-6.646
N2340 X-14.507 Y-5.946 Z-6.67
N2350 X-14.062 Y-7.242 Z-6.694
N2360 X-13.453 Y-8.469 Z-6.718
N2370 X-12.689 Y-9.607 Z-6.742
N2380 X-11.783 Y-10.635 Z-6.766
N2390 X-10.752 Y-11.536 Z-6.79
N2400 X-9.612 Y-12.296 Z-6.814
N2410 X-8.382 Y-12.9 Z-6.838
N2420 X-7.084 Y-13.339 Z-6.862
N2430 X-5.741 Y-13.606 Z-6.886
N2440 X-4.373 Y-13.695 Z-6.91
N2450 X4.373 Z-7.062
N2460 X5.741 Y-13.606 Z-7.086
N2470 X7.084 Y-13.339 Z-7.11
N2480 X8.382 Y-12.9 Z-7.134
N2490 X9.612 Y-12.296 Z-7.158
N2500 X10.752 Y-11.536 Z-7.182
N2510 X11.783 Y-10.635 Z-7.206
N2520 X12.689 Y-9.607 Z-7.23
N2530 X13.453 Y-8.469 Z-7.254
N2540 X14.062 Y-7.242 Z-7.278
N2550 X14.507 Y-5.946 Z-7.302
N2560 X14.779 Y-4.603 Z-7.326
N2570 X14.873 Y-3.237 Z-7.349
N2580 X14.789 Y-1.869 Z-7.373
N2590 X14.528 Y-.524 Z-7.397
N2600 X14.094 Y.775 Z-7.421
N2610 X13.494 Y2.007 Z-7.445
N2620 X9.121 Y9.675 Z-7.599
N2630 X8.359 Y10.826 Z-7.623
N2640 X7.454 Y11.868 Z-7.647
N2650 X6.419 Y12.782 Z-7.672
N2660 X5.274 Y13.552 Z-7.696
N2670 X4.037 Y14.165 Z-7.72
N2680 X2.731 Y14.611 Z-7.744
N2690 X1.377 Y14.882 Z-7.768
N2700 X0. Y14.972 Z-7.792
N2710 X-1.377 Y14.882 Z-7.816
N2720 X-2.731 Y14.611 Z-7.84
N2730 X-4.037 Y14.165 Z-7.864
N2740 X-5.274 Y13.552 Z-7.889
N2750 X-6.419 Y12.782 Z-7.913
N2760 X-7.454 Y11.868 Z-7.937
N2770 X-8.359 Y10.826 Z-7.961
N2780 X-9.121 Y9.675 Z-7.985
N2790 X-9.546 Y8.93 Z-8.
N2800 X-11.307 Y5.841
N2810 X-13.494 Y2.007
N2820 G3 X-14.873 Y-3.195 I9.121 J-5.202
N2830 X-4.373 Y-13.695 I10.5 J0.
N2840 G1 X4.373
N2850 G3 X14.873 Y-3.195 I0. J10.5
N2860 X13.494 Y2.007 I-10.5 J0.
N2870 G1 X9.121 Y9.675
N2880 G3 X0. Y14.973 I-9.121 J-5.203
N2890 X-9.121 Y9.675 I0. J-10.501
N2900 G1 X-9.546 Y8.93
N2910 G2 X-25.181 Y-.152 I-15.635 J8.918
N2920 X-34.099 Y2.212 I0. J18.
N2930 G0 Z25.
N2940 G1 X-49.735 Y11.13 F66.7
N2950 G0 X-52.5 Y18.
N2960 G1 X-34.5 F66.7
N2970 G0 Z10.
N2980 G1 Z-8. F10.
N2990 G2 X-16.5 Y0. I0. J-18. F66.7
N3000 G1 X-16.403 Y-1.784 Z-8.016
N3010 X-16.114 Y-3.547 Z-8.031
N3020 X-15.636 Y-5.268 Z-8.047
N3030 X-14.975 Y-6.928 Z-8.062
N3040 X-14.138 Y-8.507 Z-8.078
N3050 X-13.136 Y-9.985 Z-8.094
N3060 X-11.979 Y-11.347 Z-8.109
N3070 X-10.682 Y-12.576 Z-8.125
N3080 X-9.26 Y-13.657 Z-8.14
N3090 X-7.729 Y-14.578 Z-8.156
N3100 X-6.107 Y-15.328 Z-8.172
N3110 X-4.414 Y-15.899 Z-8.187
N3120 X-2.669 Y-16.283 Z-8.203
N3130 X-.893 Y-16.476 Z-8.218
N3140 X.893 Z-8.234
N3150 X2.669 Y-16.283 Z-8.25
N3160 X4.414 Y-15.899 Z-8.265
N3170 X6.107 Y-15.328 Z-8.281
N3180 X7.729 Y-14.578 Z-8.296
N3190 X9.26 Y-13.657 Z-8.312
N3200 X10.682 Y-12.576 Z-8.328
N3210 X11.979 Y-11.347 Z-8.343
N3220 X13.136 Y-9.985 Z-8.359
N3230 X14.138 Y-8.507 Z-8.374
N3240 X14.975 Y-6.928 Z-8.39
N3250 X15.636 Y-5.268 Z-8.406
N3260 X16.114 Y-3.547 Z-8.421
N3270 X16.403 Y-1.784 Z-8.437
N3280 X16.5 Y0. Z-8.452
N3290 X16.403 Y1.784 Z-8.468
N3300 X16.114 Y3.547 Z-8.484
N3310 X15.636 Y5.268 Z-8.499
N3320 X14.975 Y6.928 Z-8.515
N3330 X14.138 Y8.507 Z-8.53
N3340 X13.136 Y9.985 Z-8.546
N3350 X11.979 Y11.347 Z-8.562
N3360 X10.682 Y12.576 Z-8.577
N3370 X9.26 Y13.657 Z-8.593
N3380 X7.729 Y14.578 Z-8.608
N3390 X6.107 Y15.328 Z-8.624
N3400 X4.414 Y15.899 Z-8.64
N3410 X2.669 Y16.283 Z-8.655
N3420 X.893 Y16.476 Z-8.671
N3430 X-.893 Z-8.686
N3440 X-2.669 Y16.283 Z-8.702
N3450 X-4.414 Y15.899 Z-8.718
N3460 X-6.107 Y15.328 Z-8.733
N3470 X-7.729 Y14.578 Z-8.749
N3480 X-9.26 Y13.657 Z-8.764
N3490 X-10.682 Y12.576 Z-8.78
N3500 X-11.979 Y11.347 Z-8.796
N3510 X-13.136 Y9.985 Z-8.811
N3520 X-14.138 Y8.507 Z-8.827
N3530 X-14.975 Y6.928 Z-8.842
N3540 X-15.636 Y5.268 Z-8.858
N3550 X-16.114 Y3.547 Z-8.874
N3560 X-16.403 Y1.784 Z-8.889
N3570 X-16.5 Y0. Z-8.905
N3580 X-16.403 Y-1.784 Z-8.92
N3590 X-16.114 Y-3.547 Z-8.936
N3600 X-15.636 Y-5.268 Z-8.952
N3610 X-14.975 Y-6.928 Z-8.967
N3620 X-14.138 Y-8.507 Z-8.983
N3630 X-13.136 Y-9.985 Z-8.998
N3640 X-11.979 Y-11.347 Z-9.014
N3650 X-10.682 Y-12.576 Z-9.03
N3660 X-9.26 Y-13.657 Z-9.045
N3670 X-7.729 Y-14.578 Z-9.061
N3680 X-6.107 Y-15.328 Z-9.076
N3690 X-4.414 Y-15.899 Z-9.092
N3700 X-2.669 Y-16.283 Z-9.108
N3710 X-.893 Y-16.476 Z-9.123
N3720 X.893 Z-9.139
N3730 X2.669 Y-16.283 Z-9.154
N3740 X4.414 Y-15.899 Z-9.17
N3750 X6.107 Y-15.328 Z-9.186
N3760 X7.729 Y-14.578 Z-9.201
N3770 X9.26 Y-13.657 Z-9.217
N3780 X10.682 Y-12.576 Z-9.232
N3790 X11.979 Y-11.347 Z-9.248
N3800 X13.136 Y-9.985 Z-9.264
N3810 X14.138 Y-8.507 Z-9.279
N3820 X14.975 Y-6.928 Z-9.295
N3830 X15.636 Y-5.268 Z-9.31
N3840 X16.114 Y-3.547 Z-9.326
N3850 X16.403 Y-1.784 Z-9.342
N3860 X16.5 Y0. Z-9.357
N3870 X16.403 Y1.784 Z-9.373
N3880 X16.114 Y3.547 Z-9.388
N3890 X15.636 Y5.268 Z-9.404
N3900 X14.975 Y6.928 Z-9.42
N3910 X14.138 Y8.507 Z-9.435
N3920 X13.136 Y9.985 Z-9.451
N3930 X11.979 Y11.347 Z-9.466
N3940 X10.682 Y12.576 Z-9.482
N3950 X9.26 Y13.657 Z-9.497
N3960 X7.729 Y14.578 Z-9.513
N3970 X6.107 Y15.328 Z-9.529
N3980 X4.414 Y15.899 Z-9.544
N3990 X2.669 Y16.283 Z-9.56
N4000 X.893 Y16.476 Z-9.575
N4010 X-.893 Z-9.591
N4020 X-2.669 Y16.283 Z-9.607
N4030 X-4.414 Y15.899 Z-9.622
N4040 X-6.107 Y15.328 Z-9.638
N4050 X-7.729 Y14.578 Z-9.653
N4060 X-9.26 Y13.657 Z-9.669
N4070 X-10.682 Y12.576 Z-9.685
N4080 X-11.979 Y11.347 Z-9.7
N4090 X-13.136 Y9.985 Z-9.716
N4100 X-14.138 Y8.507 Z-9.731
N4110 X-14.975 Y6.928 Z-9.747
N4120 X-15.636 Y5.268 Z-9.763
N4130 X-16.114 Y3.547 Z-9.778
N4140 X-16.403 Y1.784 Z-9.794
N4150 X-16.5 Y0. Z-9.809
N4160 X-16.403 Y-1.784 Z-9.825
N4170 X-16.114 Y-3.547 Z-9.841
N4180 X-15.636 Y-5.268 Z-9.856
N4190 X-14.975 Y-6.928 Z-9.872
N4200 X-14.138 Y-8.507 Z-9.887
N4210 X-13.136 Y-9.985 Z-9.903
N4220 X-11.979 Y-11.347 Z-9.919
N4230 X-10.682 Y-12.576 Z-9.934
N4240 X-9.26 Y-13.657 Z-9.95
N4250 X-7.729 Y-14.578 Z-9.965
N4260 X-6.107 Y-15.328 Z-9.981
N4270 X-4.414 Y-15.899 Z-9.997
N4280 X-2.669 Y-16.283 Z-10.012
N4290 X-.893 Y-16.476 Z-10.028
N4300 X.893 Z-10.043
N4310 X2.669 Y-16.283 Z-10.059
N4320 X4.414 Y-15.899 Z-10.075
N4330 X6.107 Y-15.328 Z-10.09
N4340 X7.729 Y-14.578 Z-10.106
N4350 X9.26 Y-13.657 Z-10.121
N4360 X10.682 Y-12.576 Z-10.137
N4370 X11.979 Y-11.347 Z-10.153
N4380 X13.136 Y-9.985 Z-10.168
N4390 X14.138 Y-8.507 Z-10.184
N4400 X14.975 Y-6.928 Z-10.199
N4410 X15.636 Y-5.268 Z-10.215
N4420 X16.114 Y-3.547 Z-10.231
N4430 X16.403 Y-1.784 Z-10.246
N4440 X16.5 Y0. Z-10.262
N4450 X16.403 Y1.784 Z-10.277
N4460 X16.114 Y3.547 Z-10.293
N4470 X15.636 Y5.268 Z-10.309
N4480 X14.975 Y6.928 Z-10.324
N4490 X14.138 Y8.507 Z-10.34
N4500 X13.136 Y9.985 Z-10.355
N4510 X11.979 Y11.347 Z-10.371
N4520 X10.682 Y12.576 Z-10.387
N4530 X9.26 Y13.657 Z-10.402
N4540 X7.729 Y14.578 Z-10.418
N4550 X6.107 Y15.328 Z-10.433
N4560 X4.414 Y15.899 Z-10.449
N4570 X2.669 Y16.283 Z-10.465
N4580 X.893 Y16.476 Z-10.48
N4590 X-.893 Z-10.496
N4600 X-2.669 Y16.283 Z-10.511
N4610 X-4.414 Y15.899 Z-10.527
N4620 X-6.107 Y15.328 Z-10.543
N4630 X-7.729 Y14.578 Z-10.558
N4640 X-9.26 Y13.657 Z-10.574
N4650 X-10.682 Y12.576 Z-10.589
N4660 X-11.979 Y11.347 Z-10.605
N4670 X-13.136 Y9.985 Z-10.621
N4680 X-14.138 Y8.507 Z-10.636
N4690 X-14.975 Y6.928 Z-10.652
N4700 X-15.636 Y5.268 Z-10.667
N4710 X-16.114 Y3.547 Z-10.683
N4720 X-16.403 Y1.784 Z-10.699
N4730 X-16.5 Y0. Z-10.714
N4740 X-16.41 Y-1.72 Z-10.729
N4750 X-16.141 Y-3.422 Z-10.744
N4760 X-15.696 Y-5.087 Z-10.759
N4770 X-15.08 Y-6.696 Z-10.774
N4780 X-14.3 Y-8.231 Z-10.789
N4790 X-13.364 Y-9.678 Z-10.804
N4800 X-12.282 Y-11.018 Z-10.82
N4810 X-11.066 Y-12.239 Z-10.835
N4820 X-9.73 Y-13.326 Z-10.85
N4830 X-8.287 Y-14.268 Z-10.865
N4840 X-6.754 Y-15.054 Z-10.88
N4850 X-5.148 Y-15.676 Z-10.895
N4860 X-3.485 Y-16.128 Z-10.91
N4870 X-1.784 Y-16.403 Z-10.925
N4880 X-.064 Y-16.5 Z-10.94
N4890 X1.657 Y-16.417 Z-10.955
N4900 X3.359 Y-16.154 Z-10.97
N4910 X5.025 Y-15.716 Z-10.985
N4920 X6.637 Y-15.106 Z-11.
N4930 G3 X16.5 Y0. I-6.637 J15.106
N4940 X0. Y16.5 I-16.5 J0.
N4950 X-16.5 Y0. I0. J-16.5
N4960 X0. Y-16.5 I16.5 J0.
N4970 X6.637 Y-15.106 I0. J16.5
N4980 G2 X13.877 Y-13.586 I7.24 J-16.48
N4990 X30.357 Y-24.346 I0. J-18.
N5000 G0 Z25.
N5010 G1 X37.597 Y-40.826 F66.7
N5020 M5
N5030 G91 G0 G28 Z0.
N5040 G28 X0. Y0. A0.
N5050 M30
%
